public/icons/06.svg

<svg width="47" height="27" viewBox="0 0 47 27" fill="none" xmlns="http://www.w3.org/2000/svg">
<path d="M4.85854 26.7935L0.973536 22.9085V4.88346L4.85854 0.998455H17.8085L21.6935 4.88346V22.9085L17.8085 26.7935H4.85854ZM8.74354 21.8235H13.9235L15.1485 20.5985V7.19346L13.9235 5.96846H8.74354L7.51854 7.19346V20.5985L8.74354 21.8235ZM28.1819 26.7935L24.5069 23.3635V4.42845L28.1819 0.998455H42.2519L45.9269 4.42845V8.76846H39.1019V7.19346L37.8769 5.96846H32.4519L31.1919 7.19346V10.6935H42.3569L46.0319 14.1235V23.3635L42.3569 26.7935H28.1819ZM32.4519 21.8235H38.2269L39.4519 20.5985V16.4685L38.2269 15.2435H32.4519L31.1919 16.4685V20.5985L32.4519 21.8235Z" fill="url(#paint0_linear_1343_342)"/>
<defs>
<linearGradient id="paint0_linear_1343_342" x1="-1" y1="-5.70454" x2="30.3793" y2="29.4056" gradientUnits="userSpaceOnUse">
<stop stop-color="#E42BC8"/>
<stop offset="1" stop-color="#5670FD"/>
</linearGradient>
</defs>
</svg>

<svg width="47" height="27" fill="none" xmlns="http://www.w3.org/2000/svg"><path d="M4.859 26.794.974 22.908V4.884L4.859.998h12.95l3.884 3.885V22.91l-3.885 3.885H4.858zm3.885-4.97h5.18l1.225-1.226V7.194l-1.225-1.225h-5.18L7.519 7.193V20.6l1.225 1.224zm19.438 4.97-3.675-3.43V4.427l3.675-3.43h14.07l3.675 3.43v4.34h-6.825V7.193l-1.225-1.225h-5.425l-1.26 1.225v3.5h11.165l3.675 3.43v9.24l-3.675 3.43H28.182zm4.27-4.97h5.775l1.225-1.226v-4.13l-1.225-1.225h-5.775l-1.26 1.225v4.13l1.26 1.226z" fill="url(#a)"/><defs><linearGradient id="a" x1="-1" y1="-5.705" x2="30.379" y2="29.406" gradientUnits="userSpaceOnUse"><stop stop-color="#E42BC8"/><stop offset="1" stop-color="#5670FD"/></linearGradient></defs></svg>
